svgs/sharp-regular/chimney.svg

<svg xmlns="http://www.w3.org/2000/svg" viewBox="0 0 448 512"><!--! Font Awesome Pro 6.6.0 by @fontawesome - https://fontawesome.com License - https://fontawesome.com/license (Commercial License) Copyright 2024 Fonticons, Inc. --><path d="M48 80l0 96 352 0 0-96L48 80zM0 32l48 0 352 0 48 0 0 48 0 96 0 48-32 0 0 136 0 104 0 24-48 0 0-24 0-80-80 0 0 80 0 24-48 0 0-24 0-80-56 0L80 384l0 80 0 24-48 0 0-24 0-104 0-136L0 224l0-48L0 80 0 32zM80 224l0 112 80 0 0-112-80 0zm128 0l0 112 56 0 104 0 0-112-160 0z"/></svg>

<svg xmlns="http://www.w3.org/2000/svg" viewBox="0 0 448 512"><!--! Font Awesome Pro 6.4.0 by @fontawesome - https://fontawesome.com License - https://fontawesome.com/license (Commercial License) Copyright 2023 Fonticons, Inc. --><path d="M48 80v96H400V80H48zM0 32H48 400h48V80v96 48H416V360 464v24H368V464 384H288v80 24H240V464 384H184 80v80 24H32V464 360 224H0V176 80 32zM80 224V336h80V224H80zm128 0V336h56H368V224H208z"/></svg>
